arkscan/icons/simpleswap.svg

<svg viewBox="0 0 17 18" fill="none" xmlns="http://www.w3.org/2000/svg">
  <path
    d="M4.0952 13.4799L4.05377 13.5738C3.89066 13.9616 3.80664 14.3781 3.80664 14.7989C3.80664 15.2196 3.89066 15.6361 4.05377 16.0239C4.21752 16.4132 4.45673 16.7662 4.7576 17.0625C5.06035 17.3608 5.41835 17.5962 5.8117 17.7564C6.60849 18.0816 7.50097 18.0816 8.29777 17.7564C8.69089 17.5961 9.04881 17.3604 9.35131 17.0625L15.3289 11.1729C15.6364 10.8709 15.8807 10.5108 16.0476 10.1135C16.2145 9.71617 16.3008 9.28963 16.3012 8.85868C16.3012 8.07973 16.0565 7.3284 15.5223 6.73894C15.258 6.62591 14.9663 6.59324 14.6836 6.64503C14.4312 6.69143 14.1997 6.83894 14.0069 7.0124L8.32815 12.7551C8.22318 12.8623 8.10164 12.9512 7.97016 13.0197C8.03977 12.9772 8.10827 12.933 8.17622 12.8871L8.15855 12.8943C7.56668 13.2863 6.89525 13.5421 6.19263 13.6433C5.49 13.7446 4.77366 13.6888 4.0952 13.4799Z"
    fill="#2349D6" />
  <path
    d="M8.15985 12.894L8.1941 12.8708C7.97582 12.9579 7.73943 12.9899 7.50585 12.9639C7.27227 12.9378 7.0487 12.8546 6.85494 12.7216C6.68437 12.6034 6.54165 12.4494 6.43673 12.2703C6.2793 12.0015 6.21569 11.688 6.25589 11.379C6.29609 11.0701 6.43783 10.7833 6.65881 10.5638L8.54823 8.68545L11.3094 5.9652L11.3205 5.95526C11.3284 5.94857 11.3365 5.94212 11.3448 5.93592L11.7602 5.526C11.9713 5.48512 12.1867 5.46524 12.4022 5.46689C12.8878 5.46689 13.3005 5.51385 13.7115 5.63097C14.4262 5.78285 15.0674 6.17469 15.5286 6.74139C15.2631 6.62631 14.9696 6.59248 14.6849 6.64416C14.4319 6.69112 14.2004 6.83862 14.0076 7.01209L8.32945 12.7548C8.22451 12.8614 8.1033 12.9507 7.97035 13.0194C8.04021 12.9768 8.1091 12.9326 8.17697 12.8868L8.15985 12.894Z"
    fill="#1437BF" />
  <path
    d="M12.7408 1.96893C12.5887 1.60806 12.3666 1.28096 12.0872 1.00657C11.7627 0.686898 11.3787 0.433901 10.9569 0.261866C10.1017 -0.0872887 9.1437 -0.0872887 8.28851 0.261866C7.86643 0.433677 7.48192 0.687251 7.15762 1.00657L2.23631 5.85484C1.37396 6.70096 0.878886 7.85222 0.857926 9.06014C0.840064 10.2676 1.29786 11.4336 2.13245 12.3063L2.18383 12.3555L2.23686 12.4096C2.28548 12.4566 2.33631 12.5008 2.38934 12.5422C3.18764 13.2239 4.18738 13.6252 5.23546 13.6845C6.28355 13.7439 7.3222 13.4581 8.19238 12.8709C7.9741 12.958 7.7377 12.99 7.50412 12.964C7.27054 12.938 7.04698 12.8548 6.85322 12.7218C6.68264 12.6035 6.53991 12.4495 6.43501 12.2704C6.27758 12.0016 6.21397 11.6881 6.25417 11.3792C6.29437 11.0703 6.43611 10.7835 6.65709 10.5639L8.54651 8.68558L11.3077 5.96533L11.3431 5.93605L12.0861 5.20296C12.5065 4.79021 12.7938 4.2611 12.9109 3.68373C13.0271 3.10825 12.9674 2.51114 12.7397 1.97003V1.96893H12.7408Z"
    fill="#3573F3" />
</svg>

<svg viewBox="0 0 17 18" fill="none" xmlns="http://www.w3.org/2000/svg"><path d="m4.095 13.48-.041.094a3.16 3.16 0 0 0 0 2.45c.164.39.403.742.704 1.038a3.29 3.29 0 0 0 4.594 0l5.977-5.89A3.248 3.248 0 0 0 16.3 8.86c0-.78-.244-1.53-.779-2.12a1.463 1.463 0 0 0-.838-.094c-.253.046-.484.194-.677.367l-5.679 5.743a1.418 1.418 0 0 1-.358.265c.07-.043.138-.087.206-.133l-.017.007a4.8 4.8 0 0 1-4.064.586Z" fill="#2349D6"/><path d="m8.16 12.894.034-.023a1.43 1.43 0 0 1-1.34-.15 1.405 1.405 0 0 1-.196-2.158l1.89-1.878 2.761-2.72.011-.01a.508.508 0 0 1 .025-.02l.415-.409c.211-.04.427-.06.642-.06.486 0 .899.048 1.31.165a3.2 3.2 0 0 1 1.817 1.11 1.464 1.464 0 0 0-.844-.097c-.253.047-.485.195-.677.368l-5.679 5.743a1.416 1.416 0 0 1-.359.264c.07-.042.14-.086.207-.132l-.017.007Z" fill="#1437BF"/><path d="M12.74 1.969a2.96 2.96 0 0 0-.653-.962 3.487 3.487 0 0 0-1.13-.745 3.53 3.53 0 0 0-3.8.745l-4.92 4.848A4.602 4.602 0 0 0 .856 9.06a4.598 4.598 0 0 0 1.275 3.246l.052.05.053.054c.048.047.1.09.152.132a4.8 4.8 0 0 0 5.803.329 1.43 1.43 0 0 1-1.339-.15 1.405 1.405 0 0 1-.196-2.158l1.89-1.877 2.76-2.72.036-.03.743-.733c.42-.413.708-.942.825-1.52a2.925 2.925 0 0 0-.171-1.713v-.001Z" fill="#3573F3"/></svg>
